X:24
T:An Buachaill Dreoite
T:Withered Boy, The
T:Ailing Boy, The
R:fling
H:See also #22, jig#264
D:Catherine McEvoy, Caoimh\'in \'O Raghallaigh & M\'iche\'al \'O Raghallaigh
Z:id:hn-hf-24
M:C|
L:1/8
K:G
|: DGGB d2cA | dGGF G2GF | DGGB d2cA | dBcA =F3E |
DGGB d2cA | DGGF GABd | g2gf gbag |1 fdcA G2GF :|2 fdcA G2GA ||
|: B2BG c2cA | dGGF G2GA | BABG c2cA | dcAG EFGA |
B2BG c2cA | d^cde fgaf | g2gf gbag |1 fdcA G2GA :|2 fdcA G2GF ||
P:variations
|: DGGB dBcA | d2G2 G2GF | DGGB d2cA | dBcA =F3E |
DGGB dBcA | dGGF GA (3Bcd | g2gf gbag |1 fdcA G2GF :|2 fdcA G2GA ||
|: B2BG c2Bc | d2G2 G2GA | BABG c2Bc | d2DE =FGAc |
BABG cBcA | d^cde fgaf | g2gf gbag |1 fdcA G2GA :|2 fdcA G2GF ||

